X:74
T: Jesse Smith
M: 4/4
L: 1/8
R: Reel
K: Emin
dB |\
"D"A<FF>E D>E G/F/E/D/ | A<FF>A "G"B2 B<d | "D"A<FF>E D>E G/F/E/D/ | "G"F<BA>F E2 E:|
|: A |\
"Bm"d2 f>dB>e "G"d/c/B/A/ | "D"d>df<d "E"B2 B>c | "D/F#"d2 f>d "G"B>e "A"d/c/B/A/ | "Bm"d>BA<F "Em"E2 E:|
